**harm	**harte	**kern	**silbe	**kern	**silbe	**kern	**silbe	**rhyme	**timestamp	**phrase	**leadinstrument
*M4/4	*M4/4	*ICvox	*	*ICvox	*	*ICvox	*	*	*	*	*
*	*	*VRlead	*	*VRharmonize	*	*VRharmonize	*	*	*	*	*
*	*	*Hstimme	*	*Nstimme	*	*Nstimme	*	*	*	*	*
*C:	*C:	*C:	*	*C:	*	*C:	*	*	*	*	*
*	*	*M4/4	*	*M4/4	*	*M4/4	*	*	*	*	*
*	*	*clefF4	*	*clefC3	*	*clefC3	*	*	*	*	*
1r;	N	r;	.	r;	.	r;	.	.	0	.	r
=1	=1	=1	=1	=1	=1	=1	=1	=1	=1	=1	=1
*>Letter>A	*>Letter>A	*>Letter>A	*>Letter>A	*>Letter>A	*>Letter>A	*>Letter>A	*>Letter>A	*>Letter>A	*>Letter>A	*>Letter>A	*>Letter>A
*>Label>Intro	*>Label>Intro	*>Label>Intro	*>Label>Intro	*>Label>Intro	*>Label>Intro	*>Label>Intro	*>Label>Intro	*>Label>Intro	*>Label>Intro	*>Label>Intro	*>Label>Intro
1I	C:sus2	1r	.	1r	.	1r	.	.	0.511	newline	guitar
=2	=2	=2	=2	=2	=2	=2	=2	=2	=2	=2	=2
1I	C:sus2	1r	.	1r	.	1r	.	.	1.762	.	guitar
=3	=3	=3	=3	=3	=3	=3	=3	=3	=3	=3	=3
1-VII	B-:maj6(9)	1r	.	1r	.	1r	.	.	3.012	.	guitar
=4	=4	=4	=4	=4	=4	=4	=4	=4	=4	=4	=4
2-VII	B-:maj6(9)	1r	.	1r	.	1r	.	.	4.263	.	guitar
4IVb	F:maj/3	.	.	.	.	.	.	.	4.888	.	guitar
4IV	F:maj	.	.	.	.	.	.	.	5.201	.	guitar
=5	=5	=5	=5	=5	=5	=5	=5	=5	=5	=5	=5
*>Letter>B	*>Letter>B	*>Letter>B	*>Letter>B	*>Letter>B	*>Letter>B	*>Letter>B	*>Letter>B	*>Letter>B	*>Letter>B	*>Letter>B	*>Letter>B
*>Label>Trans	*>Label>Trans	*>Label>Trans	*>Label>Trans	*>Label>Trans	*>Label>Trans	*>Label>Trans	*>Label>Trans	*>Label>Trans	*>Label>Trans	*>Label>Trans	*>Label>Trans
1I	C:maj	1r	.	1r	.	1r	.	.	5.514	newline	strings
=6	=6	=6	=6	=6	=6	=6	=6	=6	=6	=6	=6
1-VII	B-:maj6(9)	1r	.	1r	.	1r	.	.	6.789	.	strings
=7	=7	=7	=7	=7	=7	=7	=7	=7	=7	=7	=7
1I	C:maj	1r	.	1r	.	1r	.	.	8.065	.	strings
=8	=8	=8	=8	=8	=8	=8	=8	=8	=8	=8	=8
1-VII	B-:maj6(9)	1r	.	1r	.	1r	.	.	9.34	.	strings
=9	=9	=9	=9	=9	=9	=9	=9	=9	=9	=9	=9
*>Letter>C	*>Letter>C	*>Letter>C	*>Letter>C	*>Letter>C	*>Letter>C	*>Letter>C	*>Letter>C	*>Letter>C	*>Letter>C	*>Letter>C	*>Letter>C
*>Label>Verse	*>Label>Verse	*>Label>Verse	*>Label>Verse	*>Label>Verse	*>Label>Verse	*>Label>Verse	*>Label>Verse	*>Label>Verse	*>Label>Verse	*>Label>Verse	*>Label>Verse
1I	C:maj	4.c	Buy	1r	.	1r	.	.	10.616	newline	voice
.	.	8c	for	.	.	.	.	.	.	.	.
.	.	4c	me	.	.	.	.	.	.	.	.
.	.	8c	the	.	.	.	.	.	.	.	.
.	.	[8B-	rain,	.	.	.	.	.	.	.	.
=10	=10	=10	=10	=10	=10	=10	=10	=10	=10	=10	=10
1-VII	B-:maj6(9)	4B-]	_	1r	.	1r	.	.	11.871	.	voice
.	.	4A	my	.	.	.	.	.	.	.	.
.	.	4G	dar-	.	.	.	.	.	.	.	.
.	.	4F	-ling,	.	.	.	.	.	.	.	.
=11	=11	=11	=11	=11	=11	=11	=11	=11	=11	=11	=11
1I	C:maj	4.G	buy	1r	.	1r	.	.	13.126	.	voice
.	.	8G	for	.	.	.	.	.	.	.	.
.	.	4G	me	.	.	.	.	.	.	.	.
.	.	8F	the	.	.	.	.	.	.	.	.
.	.	[8G	rain	.	.	.	.	A	.	.	.
=12	=12	=12	=12	=12	=12	=12	=12	=12	=12	=12	=12
1-VII	B-:maj6(9)	4G]	_	1r	.	1r	.	.	14.381	.	voice
.	.	4r	.	.	.	.	.	.	.	.	.
.	.	2r	.	.	.	.	.	.	.	.	.
=13	=13	=13	=13	=13	=13	=13	=13	=13	=13	=13	=13
1I	C:maj	4.c	Buy	1r	.	1r	.	.	15.636	newline	voice
.	.	8c	for	.	.	.	.	.	.	.	.
.	.	4c	me	.	.	.	.	.	.	.	.
.	.	8c	the	.	.	.	.	.	.	.	.
.	.	[8B-	cry-	.	.	.	.	.	.	.	.
=14	=14	=14	=14	=14	=14	=14	=14	=14	=14	=14	=14
1-VII	B-:maj6(9)	8B-]	_	1r	.	1r	.	.	16.918	.	voice
.	.	[8A	-stal	.	.	.	.	.	.	.	.
.	.	8A]	_	.	.	.	.	.	.	.	.
.	.	[8G	pools	.	.	.	.	.	.	.	.
.	.	4G]	_	.	.	.	.	.	.	.	.
.	.	4F	teat	.	.	.	.	.	.	.	.
=15	=15	=15	=15	=15	=15	=15	=15	=15	=15	=15	=15
1I	C:maj	4.G	fall	1r	.	1r	.	.	18.199	.	voice
.	.	8G	u-	.	.	.	.	.	.	.	.
.	.	4G	-pon	.	.	.	.	.	.	.	.
.	.	8F	the	.	.	.	.	.	.	.	.
.	.	[8G	plain.	.	.	.	.	A	.	.	.
=16	=16	=16	=16	=16	=16	=16	=16	=16	=16	=16	=16
1v7b	G:min11/b3	4G]	_	1r	.	1r	.	.	19.48	.	voice
.	.	4r	.	.	.	.	.	.	.	.	.
.	.	8F	And	.	.	.	.	.	.	.	.
.	.	8G	I'll	.	.	.	.	.	.	.	.
.	.	4A	_	.	.	.	.	.	.	.	.
=17	=17	=17	=17	=17	=17	=17	=17	=17	=17	=17	=17
1IV	F:maj	4.A	buy	4.c	Buy	1r	.	.	20.761	newline	voice
.	.	8A	for	8c	for	.	.	.	.	.	.
.	.	4A	you	4c	you	.	.	.	.	.	.
.	.	8A	a	8c	a	.	.	.	.	.	.
.	.	[8A	rain	[8c	rain	.	.	A	.	.	.
=18	=18	=18	=18	=18	=18	=18	=18	=18	=18	=18	=18
1IV	F:maj	4A]	_	4c]	_	1r	.	.	22.029	.	voice
.	.	4A	bow,	4c	bow,	.	.	B	.	.	.
.	.	4r	.	4r	.	.	.	.	.	.	.
.	.	8A	and	8c	and	.	.	.	.	.	.
.	.	8A	a	8c	a	.	.	.	.	.	.
=19	=19	=19	=19	=19	=19	=19	=19	=19	=19	=19	=19
1V7	G:7	8G	mil-	8d	mil-	1r	.	.	23.296	.	voice
.	.	[8G	-lion	[8d	-lion	.	.	.	.	.	.
.	.	4G]	_	4d]	_	.	.	.	.	.	.
.	.	4G	pots	4d	pots	.	.	.	.	.	.
.	.	8F	of	8c 8f	of	.	.	.	.	.	.
.	.	[8G	gold	[8d [8f	gold	.	.	B	.	.	.
=20	=20	=20	=20	=20	=20	=20	=20	=20	=20	=20	=20
1V7	G:7	4G]	_	4d] 4f]	_	1r	.	.	24.564	.	voice
.	.	4r	.	4r	.	.	.	.	.	.	.
.	.	2r	.	2r	.	.	.	.	.	.	.
=21	=21	=21	=21	=21	=21	=21	=21	=21	=21	=21	=21
1I	C:maj	8c	Buy	8e	Buy	1r	.	.	25.831	newline	voice
.	.	[8c	it	[8e	it	.	.	.	.	.	.
.	.	8c]	_	8e]	_	.	.	.	.	.	.
.	.	4.c	for	4.e	for	.	.	.	.	.	.
.	.	8c	me	8e	me	.	.	.	.	.	.
.	.	[8c	now,	[8f	now,	.	.	.	.	.	.
=22	=22	=22	=22	=22	=22	=22	=22	=22	=22	=22	=22
1-VII	B-:maj6(9)	4.c]	_	4.f]	_	1r	.	.	27.1	.	voice
.	.	[8G	babe,	[8d	babe,	.	.	.	.	.	.
.	.	4G]	_	4d]	_	.	.	.	.	.	.
.	.	8r	.	8r	.	.	.	.	.	.	.
.	.	8F	be-	8B-	be-	.	.	.	.	.	.
=23	=23	=23	=23	=23	=23	=23	=23	=23	=23	=23	=23
1IV	F:maj	8G	-fore	8c	-fore	1r	.	.	28.369	.	voice
.	.	[8G	I	[8c	I	.	.	.	.	.	.
.	.	4G]	_	4c]	_	.	.	.	.	.	.
.	.	4G	am	4c	am	.	.	.	.	.	.
.	.	8F	too	8d	too	.	.	.	.	.	.
.	.	[8G	old	[8d	old	.	.	B	.	.	.
=24	=24	=24	=24	=24	=24	=24	=24	=24	=24	=24	=24
1-VII	B-:maj6(9)	1G_	_	1d_	_	4r	.	.	29.637	.	voice
.	.	.	.	.	.	4c	I	.	.	.	.
.	.	.	.	.	.	4B-	am	.	.	.	.
.	.	.	.	.	.	8A	too	.	.	.	.
.	.	.	.	.	.	[8G	old...	.	.	.	.
=25	=25	=25	=25	=25	=25	=25	=25	=25	=25	=25	=25
1-VII	B-:maj6(9)	2.G]	_	2.d]	_	2.G]	_	.	30.906	.	voice
.	.	4F	_	[4c	_	4F	_	.	.	.	.
=26	=26	=26	=26	=26	=26	=26	=26	=26	=26	=26	=26
*>Letter>B	*>Letter>B	*>Letter>B	*>Letter>B	*>Letter>B	*>Letter>B	*>Letter>B	*>Letter>B	*>Letter>B	*>Letter>B	*>Letter>B	*>Letter>B
*>Label>Trans	*>Label>Trans	*>Label>Trans	*>Label>Trans	*>Label>Trans	*>Label>Trans	*>Label>Trans	*>Label>Trans	*>Label>Trans	*>Label>Trans	*>Label>Trans	*>Label>Trans
1I	C:maj	4G	_	4c]	_	4G	_	.	32.175	->newline	strings
.	.	4r	.	4r	.	4r	.	.	.	.	.
.	.	2r	.	2r	.	2r	.	.	.	.	.
=27	=27	=27	=27	=27	=27	=27	=27	=27	=27	=27	=27
1v7	G:min7	1r	.	1r	.	1r	.	.	33.452	.	strings
=28	=28	=28	=28	=28	=28	=28	=28	=28	=28	=28	=28
1I	C:maj	1r	.	1r	.	1r	.	.	34.73	.	strings
=29	=29	=29	=29	=29	=29	=29	=29	=29	=29	=29	=29
1v7	G:min7	1r	.	1r	.	1r	.	.	36.007	.	strings
=30	=30	=30	=30	=30	=30	=30	=30	=30	=30	=30	=30
*>Letter>C	*>Letter>C	*>Letter>C	*>Letter>C	*>Letter>C	*>Letter>C	*>Letter>C	*>Letter>C	*>Letter>C	*>Letter>C	*>Letter>C	*>Letter>C
*>Label>Verse	*>Label>Verse	*>Label>Verse	*>Label>Verse	*>Label>Verse	*>Label>Verse	*>Label>Verse	*>Label>Verse	*>Label>Verse	*>Label>Verse	*>Label>Verse	*>Label>Verse
1I	C:maj	4.c	Buy	1r	.	1r	.	.	37.285	newline	voice
.	.	8c	for	.	.	.	.	.	.	.	.
.	.	4c	me	.	.	.	.	.	.	.	.
.	.	8c	the	.	.	.	.	.	.	.	.
.	.	[8B-	sun,	.	.	.	.	C	.	.	.
=31	=31	=31	=31	=31	=31	=31	=31	=31	=31	=31	=31
1-VII	B-:maj6(9)	4B-]	_	1r	.	1r	.	.	38.561	.	voice
.	.	4A	my	.	.	.	.	.	.	.	.
.	.	4G	dar-	.	.	.	.	.	.	.	.
.	.	4F	-ling,,	.	.	.	.	.	.	.	.
=32	=32	=32	=32	=32	=32	=32	=32	=32	=32	=32	=32
1I	C:maj	4.G	buy	1r	.	1r	.	.	39.837	.	voice
.	.	8G	for	.	.	.	.	.	.	.	.
.	.	4G	me	.	.	.	.	.	.	.	.
.	.	8F	the	.	.	.	.	.	.	.	.
.	.	[8G	sun	.	.	.	.	C	.	.	.
=33	=33	=33	=33	=33	=33	=33	=33	=33	=33	=33	=33
1v7	G:min7	4G]	_	1r	.	1r	.	.	41.113	.	voice
.	.	4r	.	.	.	.	.	.	.	.	.
.	.	2r	.	.	.	.	.	.	.	.	.
=34	=34	=34	=34	=34	=34	=34	=34	=34	=34	=34	=34
1I	C:maj	4.c	Buy	1r	.	1r	.	.	42.39	newline	voice
.	.	8c	for	.	.	.	.	.	.	.	.
.	.	4c	me	.	.	.	.	.	.	.	.
.	.	8c	the	.	.	.	.	.	.	.	.
.	.	[8B-	light	.	.	.	.	.	.	.	.
=35	=35	=35	=35	=35	=35	=35	=35	=35	=35	=35	=35
1-VII	B-:maj6(9)	8B-]	_	1r	.	1r	.	.	43.673	.	voice
.	.	[8A	that	.	.	.	.	.	.	.	.
.	.	8A]	_	.	.	.	.	.	.	.	.
.	.	[8G	falls	.	.	.	.	.	.	.	.
.	.	4G]	_	.	.	.	.	.	.	.	.
.	.	4F	when	.	.	.	.	.	.	.	.
=36	=36	=36	=36	=36	=36	=36	=36	=36	=36	=36	=36
1I	C:maj	4G	day	1r	.	1r	.	.	44.957	.	voice
.	.	4G	has	.	.	.	.	.	.	.	.
.	.	4G	just	.	.	.	.	.	.	.	.
.	.	8F	be-	.	.	.	.	.	.	.	.
.	.	[8G	-gun	.	.	.	.	C	.	.	.
=37	=37	=37	=37	=37	=37	=37	=37	=37	=37	=37	=37
1-VII	B-:maj6(9)	4G]	_	1r	.	1r	.	.	46.241	.	voice
.	.	4r	.	.	.	.	.	.	.	.	.
.	.	8G	And	.	.	.	.	.	.	.	.
.	.	8G	I'll	.	.	.	.	.	.	.	.
.	.	4A	_	.	.	.	.	.	.	.	.
=38	=38	=38	=38	=38	=38	=38	=38	=38	=38	=38	=38
1IV	F:maj	4.A	buy	4.c	Buy	1r	.	.	47.525	newline	voice
.	.	8A	for	8c	for	.	.	.	.	.	.
.	.	4A	you	4c	you	.	.	.	.	.	.
.	.	8A	a	8c	a	.	.	.	.	.	.
.	.	[8A	sha-	[8c	sha-	.	.	.	.	.	.
=39	=39	=39	=39	=39	=39	=39	=39	=39	=39	=39	=39
1IV	F:maj	8A]	-dow,	8c]	-dow,	1r	.	.	48.793	.	voice
.	.	[8A	_	[8c	_	.	.	.	.	.	.
.	.	4A]	_	4c]	_	.	.	.	.	.	.
.	.	4r	.	4r	.	.	.	.	.	.	.
.	.	8A	to	8c	to	.	.	.	.	.	.
.	.	8A	pro-	8c	pro-	.	.	.	.	.	.
=40	=40	=40	=40	=40	=40	=40	=40	=40	=40	=40	=40
1V7	G:7	8G	-tect	8d	-tect	1r	.	.	50.061	.	voice
.	.	[8G	you	[8d	you	.	.	.	.	.	.
.	.	4G]	_	4d]	_	.	.	.	.	.	.
.	.	4G	from	4d	from	.	.	.	.	.	.
.	.	8F	the	8c	the	.	.	.	.	.	.
.	.	[8G	day	[8d [8f	day	.	.	A	.	.	.
=41	=41	=41	=41	=41	=41	=41	=41	=41	=41	=41	=41
1V7	G:7	4G]	_	4d] 4f]	_	1r	.	.	51.33	.	voice
.	.	4r	.	4r	.	.	.	.	.	.	.
.	.	2r	.	2r	.	.	.	.	.	.	.
=42	=42	=42	=42	=42	=42	=42	=42	=42	=42	=42	=42
1I	C:maj	8c	Buy	8e	Buy	1r	.	.	52.598	newline	voice
.	.	4c	it	4e	it	.	.	.	.	.	.
.	.	4.c	for	4.e	for	.	.	.	.	.	.
.	.	8c	me	8e	me	.	.	.	.	.	.
.	.	[8c	now,	[8f	now,	.	.	.	.	.	.
=43	=43	=43	=43	=43	=43	=43	=43	=43	=43	=43	=43
1-VII	B-:maj6(9)	4.c]	_	4.f]	_	1r	.	.	53.891	.	voice
.	.	[8G	babe,	[8d	babe,	.	.	.	.	.	.
.	.	4G]	_	4d]	_	.	.	.	.	.	.
.	.	8r	.	8r	.	.	.	.	.	.	.
.	.	8F	be-	8B-	be-	.	.	.	.	.	.
=44	=44	=44	=44	=44	=44	=44	=44	=44	=44	=44	=44
1IV	F:maj	8G	-fore	8c	-fore	1r	.	.	55.184	.	voice
.	.	[8G	I	[8c	I	.	.	.	.	.	.
.	.	4G]	_	4c]	_	.	.	.	.	.	.
.	.	4G	go	4c	go	.	.	.	.	.	.
.	.	8F	a-	8d	a-	.	.	.	.	.	.
.	.	[8G	-way	[8d	-way	.	.	A	.	.	.
=45	=45	=45	=45	=45	=45	=45	=45	=45	=45	=45	=45
1-VII	B-:maj6(9)	1G_	_	1d_	_	4r	.	.	56.477	.	voice
.	.	.	.	.	.	4c	I'll	.	.	.	.
.	.	.	.	.	.	4B-	go	.	.	.	.
.	.	.	.	.	.	4A	a-	.	.	.	.
=46	=46	=46	=46	=46	=46	=46	=46	=46	=46	=46	=46
1-VII	B-:maj6(9)	2.G]	_	2.d]	_	2.G	-way...	A	57.77	.	voice
.	.	4F	_	[4c	_	4F	_	.	.	.	.
=47	=47	=47	=47	=47	=47	=47	=47	=47	=47	=47	=47
*>Letter>B	*>Letter>B	*>Letter>B	*>Letter>B	*>Letter>B	*>Letter>B	*>Letter>B	*>Letter>B	*>Letter>B	*>Letter>B	*>Letter>B	*>Letter>B
*>Label>Trans	*>Label>Trans	*>Label>Trans	*>Label>Trans	*>Label>Trans	*>Label>Trans	*>Label>Trans	*>Label>Trans	*>Label>Trans	*>Label>Trans	*>Label>Trans	*>Label>Trans
1I	C:maj	4G	_	4c]	_	4G	_	.	59.063	->newline	strings
.	.	4r	.	4r	.	4r	.	.	.	.	.
.	.	2r	.	2r	.	2r	.	.	.	.	.
=48	=48	=48	=48	=48	=48	=48	=48	=48	=48	=48	=48
1v7	G:min7	1r	.	1r	.	1r	.	.	60.348	.	strings
=49	=49	=49	=49	=49	=49	=49	=49	=49	=49	=49	=49
1I	C:maj	1r	.	1r	.	1r	.	.	61.634	.	strings
=50	=50	=50	=50	=50	=50	=50	=50	=50	=50	=50	=50
1v7	G:min7	1r	.	1r	.	1r	.	.	62.919	.	strings
=51	=51	=51	=51	=51	=51	=51	=51	=51	=51	=51	=51
*>Letter>C	*>Letter>C	*>Letter>C	*>Letter>C	*>Letter>C	*>Letter>C	*>Letter>C	*>Letter>C	*>Letter>C	*>Letter>C	*>Letter>C	*>Letter>C
*>Label>Verse	*>Label>Verse	*>Label>Verse	*>Label>Verse	*>Label>Verse	*>Label>Verse	*>Label>Verse	*>Label>Verse	*>Label>Verse	*>Label>Verse	*>Label>Verse	*>Label>Verse
1I	C:maj	4.c	Buy	1r	.	1r	.	.	64.204	newline	voice
.	.	8c	for	.	.	.	.	.	.	.	.
.	.	4c	me	.	.	.	.	.	.	.	.
.	.	8c	the	.	.	.	.	.	.	.	.
.	.	[8B-	ro	.	.	.	.	.	.	.	.
=52	=52	=52	=52	=52	=52	=52	=52	=52	=52	=52	=52
1-VII	B-:maj6(9)	8B-]	_	1r	.	1r	.	.	65.488	.	voice
.	.	[8A	bin,	.	.	.	.	.	.	.	.
.	.	8A]	_	.	.	.	.	.	.	.	.
.	.	[8G	dar-	.	.	.	.	.	.	.	.
.	.	8G]	_	.	.	.	.	.	.	.	.
.	.	[8F	-ling,	.	.	.	.	d	.	.	.
.	.	4F]	_	.	.	.	.	.	.	.	.
=53	=53	=53	=53	=53	=53	=53	=53	=53	=53	=53	=53
1I	C:maj	4.G	buy	1r	.	1r	.	.	66.772	.	voice
.	.	8G	for	.	.	.	.	.	.	.	.
.	.	4G	me	.	.	.	.	.	.	.	.
.	.	8F	the	.	.	.	.	.	.	.	.
.	.	[8G	wing	.	.	.	.	D	.	.	.
=54	=54	=54	=54	=54	=54	=54	=54	=54	=54	=54	=54
1-VII	B-:maj6(9)	4G]	_	1r	.	1r	.	.	68.056	.	voice
.	.	4r	.	.	.	.	.	.	.	.	.
.	.	2r	.	.	.	.	.	.	.	.	.
=55	=55	=55	=55	=55	=55	=55	=55	=55	=55	=55	=55
1I	C:maj	4.c	Buy	1r	.	1r	.	.	69.34	newline	voice
.	.	8c	for	.	.	.	.	.	.	.	.
.	.	4c	me	.	.	.	.	.	.	.	.
.	.	8c	a	.	.	.	.	.	.	.	.
.	.	[8B-	spar-	.	.	.	.	.	.	.	.
=56	=56	=56	=56	=56	=56	=56	=56	=56	=56	=56	=56
1-VII	B-:maj6(9)	8B-]	_	1r	.	1r	.	.	70.643	.	voice
.	.	[8A	-row,	.	.	.	.	.	.	.	.
.	.	4A]	_	.	.	.	.	.	.	.	.
.	.	8G	or	.	.	.	.	.	.	.	.
.	.	[8F	most	.	.	.	.	.	.	.	.
.	.	4F]	_	.	.	.	.	.	.	.	.
=57	=57	=57	=57	=57	=57	=57	=57	=57	=57	=57	=57
1I	C:maj	8G	a-	1r	.	1r	.	.	71.945	.	voice
.	.	[8G	-ny	.	.	.	.	.	.	.	.
.	.	4G]	_	.	.	.	.	.	.	.	.
.	.	8G	fly-	.	.	.	.	.	.	.	.
.	.	[8F	-ing	.	.	.	.	.	.	.	.
.	.	8F]	_	.	.	.	.	.	.	.	.
.	.	[8G	thing	.	.	.	.	D	.	.	.
=58	=58	=58	=58	=58	=58	=58	=58	=58	=58	=58	=58
1-VII	B-:maj6(9)	4G]	_	1r	.	1r	.	.	73.247	.	voice
.	.	4r	.	.	.	.	.	.	.	.	.
.	.	8G	And	.	.	.	.	.	.	.	.
.	.	8G	I'll	.	.	.	.	.	.	.	.
.	.	4A	_	.	.	.	.	.	.	.	.
=59	=59	=59	=59	=59	=59	=59	=59	=59	=59	=59	=59
1IV	F:maj	4.A	buy	4.c	Buy	1r	.	.	74.549	newline	voice
.	.	8A	for	8c	for	.	.	.	.	.	.
.	.	4A	you	4c	you	.	.	.	.	.	.
.	.	8A	a	8c	a	.	.	.	.	.	.
.	.	[8A	tree,	[8c	tree,	.	.	D	.	.	.
=60	=60	=60	=60	=60	=60	=60	=60	=60	=60	=60	=60
1IV	F:maj	8A]	_	8c]	_	1r	.	.	75.815	.	voice
.	.	[8A	my	[8c	my	.	.	.	.	.	.
.	.	8A]	_	8c]	_	.	.	.	.	.	.
.	.	[8A	love,	[8c	love,	.	.	.	.	.	.
.	.	4A]	_	4c]	_	.	.	.	.	.	.
.	.	8F	where	8c	where	.	.	.	.	.	.
.	.	8F	a	8c	a	.	.	.	.	.	.
=61	=61	=61	=61	=61	=61	=61	=61	=61	=61	=61	=61
1V7	G:7	8G	ro-	8d	ro-	1r	.	.	77.08	.	voice
.	.	[8G	-bin's	[8d	-bin's	.	.	.	.	.	.
.	.	4G]	_	4d]	_	.	.	.	.	.	.
.	.	4G	nest	4d	nest	.	.	.	.	.	.
.	.	8F	may	8c 8e	may	.	.	.	.	.	.
.	.	[8G	grow	[8d [8f	grow	.	.	B	.	.	.
=62	=62	=62	=62	=62	=62	=62	=62	=62	=62	=62	=62
1V7	G:7	4G]	_	4d] 4f]	_	1r	.	.	78.346	.	voice
.	.	4r	.	4r	.	.	.	.	.	.	.
.	.	2r	.	2r	.	.	.	.	.	.	.
=63	=63	=63	=63	=63	=63	=63	=63	=63	=63	=63	=63
1I	C:maj	8c	Buy	8e	Buy	1r	.	.	79.612	newline	voice
.	.	4c	it	4e	it	.	.	.	.	.	.
.	.	4.c	for	4.e	for	.	.	.	.	.	.
.	.	8c	me	8e	me	.	.	.	.	.	.
.	.	[8c	now,	[8f	now,	.	.	.	.	.	.
=64	=64	=64	=64	=64	=64	=64	=64	=64	=64	=64	=64
1-VII	B-:maj6(9)	4.c]	_	4.f]	_	1r	.	.	80.919	.	voice
.	.	[8G	babe,	[8d	babe,	.	.	.	.	.	.
.	.	4G]	_	4d]	_	.	.	.	.	.	.
.	.	8r	.	8r	.	.	.	.	.	.	.
.	.	8F	the	8B-	the	.	.	.	.	.	.
=65	=65	=65	=65	=65	=65	=65	=65	=65	=65	=65	=65
1IV	F:maj	4G	years	4c	years	1r	.	.	82.226	.	voice
.	.	4G	all	4c	all	.	.	.	.	.	.
.	.	8G	hur-	8c	hur-	.	.	.	.	.	.
.	.	[8F	-ry	[8c	-ry	.	.	.	.	.	.
.	.	8F]	_	8c]	_	.	.	.	.	.	.
.	.	[8G	so	[8d	so	.	.	B	.	.	.
=66	=66	=66	=66	=66	=66	=66	=66	=66	=66	=66	=66
1-VII	B-:maj6(9)	1G_	_	1d_	_	4r	.	.	83.534	.	voice
.	.	.	.	.	.	4c	They	.	.	.	.
.	.	.	.	.	.	8B-	hur-	.	.	.	.
.	.	.	.	.	.	[8A	-ry	.	.	.	.
.	.	.	.	.	.	4A]	_	.	.	.	.
=67	=67	=67	=67	=67	=67	=67	=67	=67	=67	=67	=67
1-VII	B-:maj6(9)	2.G]	_	2.d]	_	2.G	so...	.	84.841	.	voice
.	.	4F	_	[4c	_	4F	_	.	.	.	.
=68	=68	=68	=68	=68	=68	=68	=68	=68	=68	=68	=68
*>Letter>B	*>Letter>B	*>Letter>B	*>Letter>B	*>Letter>B	*>Letter>B	*>Letter>B	*>Letter>B	*>Letter>B	*>Letter>B	*>Letter>B	*>Letter>B
*>Label>Trans	*>Label>Trans	*>Label>Trans	*>Label>Trans	*>Label>Trans	*>Label>Trans	*>Label>Trans	*>Label>Trans	*>Label>Trans	*>Label>Trans	*>Label>Trans	*>Label>Trans
1I	C:maj	4G	_	4c]	_	4G	_	.	86.149	->newline	strings
.	.	4r	.	4r	.	4r	.	.	.	.	.
.	.	2r	.	2r	.	2r	.	.	.	.	.
=69	=69	=69	=69	=69	=69	=69	=69	=69	=69	=69	=69
1v7	G:min7	1r	.	1r	.	1r	.	.	87.422	.	strings
=70	=70	=70	=70	=70	=70	=70	=70	=70	=70	=70	=70
1I	C:maj	1r	.	1r	.	1r	.	.	88.696	.	strings
=71	=71	=71	=71	=71	=71	=71	=71	=71	=71	=71	=71
1v7	G:min7	2r	.	1r	.	1r	.	.	89.97	.	strings
.	.	4r	.	.	.	.	.	.	.	.	.
.	.	4c	I	.	.	.	.	.	.	.	.
=72	=72	=72	=72	=72	=72	=72	=72	=72	=72	=72	=72
*>Letter>C	*>Letter>C	*>Letter>C	*>Letter>C	*>Letter>C	*>Letter>C	*>Letter>C	*>Letter>C	*>Letter>C	*>Letter>C	*>Letter>C	*>Letter>C
*>Label>Verse	*>Label>Verse	*>Label>Verse	*>Label>Verse	*>Label>Verse	*>Label>Verse	*>Label>Verse	*>Label>Verse	*>Label>Verse	*>Label>Verse	*>Label>Verse	*>Label>Verse
1I	C:maj	8c	can-	1r	.	1r	.	.	91.243	newline	voice
.	.	[8c	-not	.	.	.	.	.	.	.	.
.	.	8c]	_	.	.	.	.	.	.	.	.
.	.	[8c	buy	.	.	.	.	.	.	.	.
.	.	4c]	_	.	.	.	.	.	.	.	.
.	.	8c	you	.	.	.	.	.	.	.	.
.	.	[8B-	hap-	.	.	.	.	.	.	.	.
=73	=73	=73	=73	=73	=73	=73	=73	=73	=73	=73	=73
1-VII	B-:maj6(9)	8B-]	_	1r	.	1r	.	.	92.54	.	voice
.	.	[8A	-pi-	.	.	.	.	.	.	.	.
.	.	8A]	_	.	.	.	.	.	.	.	.
.	.	[8G	-ness,	.	.	.	.	.	.	.	.
.	.	4G]	_	.	.	.	.	.	.	.	.
.	.	4F	I	.	.	.	.	.	.	.	.
=74	=74	=74	=74	=74	=74	=74	=74	=74	=74	=74	=74
1I	C:maj	8G	can-	1r	.	1r	.	.	93.837	.	voice
.	.	[8G	-not	.	.	.	.	.	.	.	.
.	.	8G]	_	.	.	.	.	.	.	.	.
.	.	[8G	buy	.	.	.	.	.	.	.	.
.	.	4G]	_	.	.	.	.	.	.	.	.
.	.	8F	you	.	.	.	.	.	.	.	.
.	.	[8G	_	.	.	.	.	.	.	.	.
=75	=75	=75	=75	=75	=75	=75	=75	=75	=75	=75	=75
1-VII	B-:maj6(9)	4G]	years.	1r	.	1r	.	E	95.134	.	voice
.	.	4r	.	.	.	.	.	.	.	.	.
.	.	4r	.	.	.	.	.	.	.	.	.
.	.	4c	I	.	.	.	.	.	.	.	.
=76	=76	=76	=76	=76	=76	=76	=76	=76	=76	=76	=76
1I	C:maj	8c	can-	1r	.	1r	.	.	96.431	newline	voice
.	.	[8c	-not	.	.	.	.	.	.	.	.
.	.	8c]	_	.	.	.	.	.	.	.	.
.	.	[8c	buy	.	.	.	.	.	.	.	.
.	.	4c]	_	.	.	.	.	.	.	.	.
.	.	8c	you	.	.	.	.	.	.	.	.
.	.	[8B-	hap-	.	.	.	.	.	.	.	.
=77	=77	=77	=77	=77	=77	=77	=77	=77	=77	=77	=77
1-VII	B-:maj6(9)	8B-]	_	1r	.	1r	.	.	97.705	.	voice
.	.	[8A	-pi-	.	.	.	.	.	.	.	.
.	.	8A]	_	.	.	.	.	.	.	.	.
.	.	[8G	-ness,	.	.	.	.	.	.	.	.
.	.	4G]	_	.	.	.	.	.	.	.	.
.	.	4F	in	.	.	.	.	.	.	.	.
=78	=78	=78	=78	=78	=78	=78	=78	=78	=78	=78	=78
1I	C:maj	4G	place	1r	.	1r	.	.	98.978	.	voice
.	.	8G	of	.	.	.	.	.	.	.	.
.	.	[8G	all	.	.	.	.	.	.	.	.
.	.	4G]	_	.	.	.	.	.	.	.	.
.	.	8F	the	.	.	.	.	.	.	.	.
.	.	[8G	tears	.	.	.	.	E	.	.	.
=79	=79	=79	=79	=79	=79	=79	=79	=79	=79	=79	=79
1-VII	B-:maj6(9)	4G]	_	1r	.	1r	.	.	100.251	.	voice
.	.	8r	.	.	.	.	.	.	.	.	.
.	.	8G	But	.	.	.	.	.	.	.	.
.	.	8G	I	.	.	.	.	.	.	.	.
.	.	[8A	can	.	.	.	.	.	.	.	.
.	.	4A]	_	.	.	.	.	.	.	.	.
=80	=80	=80	=80	=80	=80	=80	=80	=80	=80	=80	=80
1IV	F:maj	4.A	buy	4.c	Buy	1r	.	.	101.525	newline	voice
.	.	8A	for	8c	for	.	.	.	.	.	.
.	.	4A	you	4c	you	.	.	.	.	.	.
.	.	8A	a	8c	a	.	.	.	.	.	.
.	.	[8A	grave	[8c	grave	.	.	.	.	.	.
=81	=81	=81	=81	=81	=81	=81	=81	=81	=81	=81	=81
1IV	F:maj	4A]	_	4c]	_	1r	.	.	102.821	.	voice
.	.	4A	stone,	4c	stone,	.	.	.	.	.	.
.	.	4r	.	4r	.	.	.	.	.	.	.
.	.	8r	.	8r	.	.	.	.	.	.	.
.	.	8F	to	8c	to	.	.	.	.	.	.
=82	=82	=82	=82	=82	=82	=82	=82	=82	=82	=82	=82
1V7	G:7	8G	lay	8d	lay	1r	.	.	104.116	.	voice
.	.	[8G	be	[8d	be	.	.	.	.	.	.
.	.	4G]	_	4d]	_	.	.	.	.	.	.
.	.	4G	hind	4d	hind	.	.	.	.	.	.
.	.	8F	your	8c 8e	your	.	.	.	.	.	.
.	.	[8G	head	[8d [8f	head	.	.	F	.	.	.
=83	=83	=83	=83	=83	=83	=83	=83	=83	=83	=83	=83
1V7	G:7	4G]	_	4d] 4f]	_	1r	.	.	105.412	.	voice
.	.	4r	.	4r	.	.	.	.	.	.	.
.	.	2r	.	2r	.	.	.	.	.	.	.
=84	=84	=84	=84	=84	=84	=84	=84	=84	=84	=84	=84
1I	C:maj	4c	Grave-	4e	Grave-	1r	.	.	106.708	newline	voice
.	.	4c	-stones	4e	-stones	.	.	.	.	.	.
.	.	4c	cheer	4e	cheer	.	.	.	.	.	.
.	.	4c	the	4e	the	.	.	.	.	.	.
=85	=85	=85	=85	=85	=85	=85	=85	=85	=85	=85	=85
1-VII	B-:maj6(9)	8c	li-	8f	li-	1r	.	.	107.981	.	voice
.	.	[8G	-ving,	[8d	-ving,	.	.	.	.	.	.
.	.	8G]	_	8d]	_	.	.	.	.	.	.
.	.	[8G	dear,	[8d	dear,	.	.	.	.	.	.
.	.	4G]	_	4d]	_	.	.	.	.	.	.
.	.	4G	they're	4c	they're	.	.	.	.	.	.
=86	=86	=86	=86	=86	=86	=86	=86	=86	=86	=86	=86
1IV	F:maj	8G	no	8c	no	1r	.	.	109.254	.	voice
.	.	[8G	use	[8c	use	.	.	.	.	.	.
.	.	4G]	_	4c]	_	.	.	.	.	.	.
.	.	4G	to	4c	to	.	.	.	.	.	.
.	.	8~F	the	8~d	the	.	.	.	.	.	.
.	.	[8G	dead	[8d	dead	.	.	F	.	.	.
=87	=87	=87	=87	=87	=87	=87	=87	=87	=87	=87	=87
1-VII	B-:maj6(9)	1G_	_	1d_	_	4c	No	.	110.528	.	voice
.	.	.	.	.	.	4c	use	.	.	.	.
.	.	.	.	.	.	4B-	to	.	.	.	.
.	.	.	.	.	.	8A	the	.	.	.	.
.	.	.	.	.	.	[8c	dead...	.	.	.	.
=88	=88	=88	=88	=88	=88	=88	=88	=88	=88	=88	=88
1-VII	B-:maj6(9)	2.G]	_	2.d]	_	2.c]	_	.	111.801	.	voice
.	.	4F	_	[4c	_	4B-	_	.	.	.	.
=89	=89	=89	=89	=89	=89	=89	=89	=89	=89	=89	=89
*>Letter>B	*>Letter>B	*>Letter>B	*>Letter>B	*>Letter>B	*>Letter>B	*>Letter>B	*>Letter>B	*>Letter>B	*>Letter>B	*>Letter>B	*>Letter>B
*>Label>Trans	*>Label>Trans	*>Label>Trans	*>Label>Trans	*>Label>Trans	*>Label>Trans	*>Label>Trans	*>Label>Trans	*>Label>Trans	*>Label>Trans	*>Label>Trans	*>Label>Trans
1I	C:maj	4G	_	4c]	_	4c	_	.	113.074	->newline	strings
.	.	4r	.	4r	.	2.r	.	.	.	.	.
.	.	2r	.	2r	.	.	.	.	.	.	.
=90	=90	=90	=90	=90	=90	=90	=90	=90	=90	=90	=90
1v7	G:min7	1r	.	1r	.	1r	.	.	114.386	.	strings
=91	=91	=91	=91	=91	=91	=91	=91	=91	=91	=91	=91
1I	C:maj	1r	.	1r	.	1r	.	.	115.699	.	strings
=92	=92	=92	=92	=92	=92	=92	=92	=92	=92	=92	=92
1v7	G:min7	1r	.	1r	.	1r	.	.	117.011	.	strings
=93	=93	=93	=93	=93	=93	=93	=93	=93	=93	=93	=93
*>Letter>C	*>Letter>C	*>Letter>C	*>Letter>C	*>Letter>C	*>Letter>C	*>Letter>C	*>Letter>C	*>Letter>C	*>Letter>C	*>Letter>C	*>Letter>C
*>Label>Interlude	*>Label>Interlude	*>Label>Interlude	*>Label>Interlude	*>Label>Interlude	*>Label>Interlude	*>Label>Interlude	*>Label>Interlude	*>Label>Interlude	*>Label>Interlude	*>Label>Interlude	*>Label>Interlude
1I	C:maj	1r	.	1r	.	1r	.	.	118.323	newline	strings
=94	=94	=94	=94	=94	=94	=94	=94	=94	=94	=94	=94
1-VII	B-:maj6(9)	1r	.	1r	.	1r	.	.	119.604	.	strings
=95	=95	=95	=95	=95	=95	=95	=95	=95	=95	=95	=95
1I	C:maj	1r	.	1r	.	1r	.	.	120.886	.	strings
=96	=96	=96	=96	=96	=96	=96	=96	=96	=96	=96	=96
1-VII	B-:maj6(9)	1r	.	1r	.	1r	.	.	122.167	.	strings
=97	=97	=97	=97	=97	=97	=97	=97	=97	=97	=97	=97
1IV	F:maj	1r	.	1r	.	1r	.	.	123.448	newline	strings
=98	=98	=98	=98	=98	=98	=98	=98	=98	=98	=98	=98
1IV	F:maj	1r	.	1r	.	1r	.	.	124.737	.	strings
=99	=99	=99	=99	=99	=99	=99	=99	=99	=99	=99	=99
1V7	G:7	1r	.	1r	.	1r	.	.	126.027	.	strings
=100	=100	=100	=100	=100	=100	=100	=100	=100	=100	=100	=100
1V7	G:7	1r	.	1r	.	1r	.	.	127.316	.	strings
=101	=101	=101	=101	=101	=101	=101	=101	=101	=101	=101	=101
1I	C:maj	1r	.	1r	.	1r	.	.	128.605	newline	strings
=102	=102	=102	=102	=102	=102	=102	=102	=102	=102	=102	=102
1-VII	B-:maj6(9)	1r	.	1r	.	1r	.	.	129.888	.	strings
=103	=103	=103	=103	=103	=103	=103	=103	=103	=103	=103	=103
1IV	F:maj	1r	.	1r	.	1r	.	.	131.171	.	strings
=104	=104	=104	=104	=104	=104	=104	=104	=104	=104	=104	=104
1v	G:min6	1r	.	1r	.	1r	.	.	132.454	->newline	strings
=105	=105	=105	=105	=105	=105	=105	=105	=105	=105	=105	=105
1v	G:min6	1r	.	1r	.	1r	.	.	133.73	.	strings
=106	=106	=106	=106	=106	=106	=106	=106	=106	=106	=106	=106
1v7	G:min7	1r	.	1r	.	1r	.	.	135.006	.	strings
=107	=107	=107	=107	=107	=107	=107	=107	=107	=107	=107	=107
1v7	G:min7	1r	.	1r	.	1r	.	.	136.283	.	strings
=108	=108	=108	=108	=108	=108	=108	=108	=108	=108	=108	=108
1I	C:maj	1r	.	1r	.	1r	.	.	137.559	newline	strings
1r;	N	r;	.	r;	.	r;	.	.	141.154	.	r
1r;	N	r;	.	r;	.	r;	.	.	143.047	.	r
*-	*-	*-	*-	*-	*-	*-	*-	*-	*-	*-	*-
!!!BillboardChartDate: 1967/04/22
!!!BillboardPeak: 45
!!!BillboardWeeksOnChart: 7
!!!COC: Nitty Gritty Dirt Band
!!!ENC: Nathaniel Condit-Schultz
!!!EST: Awating manual error checking and editing.
!!!OTL: Buy For Me The Rain
!!!RDF**harte: Chris Harte's syntax, used by MIREX
!!!RDF**harmony: **recip + pitch class of root + harmonic quality
!!!RDF**leadinstrument: original McGill primary instrumentation annotation
!!!RDF**phrase: newline = linebreak in original McGill transcription
!!!RDF**timestamp: McGill audio timestamp in seconds
!!!RDT: 2017/01/12/
!!!SampleActualRank: 57
!!!SampleID#: 0088
!!!SampleTargetRank: 57
!!!MBID: 7772a95a-b5f5-4751-baf4-24df6467b494
